src/assets/img/logo/dark/docs.svg

<?xml version="1.0" encoding="utf-8"?>
<!-- Generator: Adobe Illustrator 26.3.1, SVG Export Plug-In . SVG Version: 6.00 Build 0)  -->
<svg version="1.1" id="Layer_1" xmlns="http://www.w3.org/2000/svg" xmlns:xlink="http://www.w3.org/1999/xlink" x="0px" y="0px"
	 viewBox="0 0 7798.7 1153.8" style="enable-background:new 0 0 7798.7 1153.8;" xml:space="preserve">
<style type="text/css">
	.st0{fill:url(#SVGID_1_);}
	.st1{fill:#FFFFFF;}
	.st2{fill:url(#SVGID_00000029766469865725239570000018121586408511496324_);}
</style>
<linearGradient id="SVGID_1_" gradientUnits="userSpaceOnUse" x1="4507.709" y1="-9.284" x2="5021.6353" y2="880.8767" gradientTransform="matrix(1 0 0 1 0 136)">
	<stop  offset="0" style="stop-color:#FF00A0"/>
	<stop  offset="1" style="stop-color:#9600FF"/>
</linearGradient>
<path class="st0" d="M5285.5,555.2c99.5-75.6,46.3-242.3-61.7-280.2c-23.8-9.8-49-14-75.6-14h-260.6v631.7c15.4,0,295.5,0,295.5,0
	c50.4,0,98.1-18.3,133-51.8C5394.9,765.2,5386.4,611.1,5285.5,555.2z M5013.7,386.9L5013.7,386.9h130.3c33.7,0,61.6,23.8,60.3,58.9
	c1.4,33.7-26.6,61.7-60.3,60.3h-130.2h-0.1V386.9z M5176.2,766.6h-162.5V629.3h162.5c33.7-1.4,61.7,36.4,60.3,70.1
	C5237.9,731.5,5209.9,768,5176.2,766.6z M4515.6,260.9h-240.3v631.8h240.3c174.5,0,315.9-141.4,315.9-315.9S4690,260.9,4515.6,260.9
	z M4515.6,766.5c0,0,0,0-0.1,0h-114.2V386.9h114.1c0,0,0,0,0.1,0c104.9,0,189.9,85,189.9,189.8S4620.4,766.5,4515.6,766.5z"/>
<path class="st1" d="M4092.9,260.9v631.8H4219V260.9H4092.9z"/>
<path class="st1" d="M4036.6,650.3c0-136.5-110.7-247.1-247.1-247.1s-247.1,110.7-247.1,247.1s110.7,247.1,247.1,247.1
	c43.9,0,85.2-11.5,121-31.7v26.8h126.1L4036.6,650.3C4036.6,650.4,4036.6,650.4,4036.6,650.3z M3789.4,771.3
	c-66.9,0-121-54.2-121-121s54.2-121,121-121c66.9,0,121,54.2,121,121S3856.3,771.3,3789.4,771.3z"/>
<path class="st1" d="M3239,771.2c-51,0-94.7-31.6-112.4-76.2H3482c2.7-14.5,4-29.6,4-44.7c0-136.5-110.7-247.1-247.1-247.1
	s-247.1,110.7-247.1,247.1s110.7,247.1,247.1,247.1c108.7,0,201-70.2,234.1-167.5h-142.8C3308,755.2,3275.4,771.2,3239,771.2z
	 M3239,529.3c51,0,94.7,31.6,112.4,76.2h-224.9C3144.3,560.8,3188,529.3,3239,529.3z"/>
<path class="st1" d="M2963.1,403.3c-107.9,0-203.1,69.9-235.4,172.1c-6.9,23.8-11.2,49-11.2,74.3v133.9v108.9h126.1V649.7
	c3.4-83.4,62.3-125,120.9-125V403.3C2963.5,403.3,2963.2,403.3,2963.1,403.3z"/>
<path class="st1" d="M2688,403.3c-107.9,0-203.1,69.9-235.4,172.1c-6.9,23.8-11.2,49-11.2,74.3v133.9v108.9h126.1V649.7
	c3.4-83.4,62.3-125,120.9-125V403.3C2688.3,403.3,2688.1,403.3,2688,403.3z"/>
<path class="st1" d="M2259,651c-6.9,166.7-235.4,166.7-240.9,0V517.1V408.2H1892v108.9v133.8c0,25.2,4.2,50.4,11.2,74.3
	c32.3,102.3,127.5,172.3,235.4,172.3s203.1-69.9,235.4-172.1c6.9-23.8,11.2-49,11.2-74.3V517.1V408.2H2259L2259,651L2259,651z"/>
<path class="st1" d="M1662.5,523.3c-53.1-8.5-116-18.4-157.9-52.4c-26.6-21.4-15.4-55.3,12.6-73.9c54.5-35.7,145.2-15.7,163.4,49.6
	h142.5c0-116.3-122.9-191.7-237.6-190.3c-64.4,0-124.3,15.7-170.5,53.9c-55.8,45.4-83.7,132-48.9,196
	c57.3,95.1,195.7,93.7,289.3,131.9c25.2,12.8,40.6,27.1,40.6,53.9c0,58.3-51.7,82.4-110.4,82.4c-55.8,1.4-97.7-41.2-103.4-93.7
	h-139.8c4.2,205.9,273.9,279.9,426.1,157.5c43.3-37,67.1-89.5,67.1-146.1C1837,599.8,1750.5,537.4,1662.5,523.3z"/>
<linearGradient id="SVGID_00000170989410183004404610000017700669704526812344_" gradientUnits="userSpaceOnUse" x1="239.4283" y1="-0.9518" x2="749.6663" y2="882.8065" gradientTransform="matrix(1 0 0 1 0 136)">
	<stop  offset="0" style="stop-color:#FF00A0"/>
	<stop  offset="1" style="stop-color:#9600FF"/>
</linearGradient>
<path style="fill:url(#SVGID_00000170989410183004404610000017700669704526812344_);" d="M494.5,303.5l274.7,152.1v-61L494.5,242.9
	c-40.9,22.6-238.3,131.8-274.7,151.8c33.8,18.7,388.7,214.8,604.4,333.9v60.8c-29.3,16.2-329.7,182.1-329.7,182.1
	c-82.2-45.3-247.6-136.7-329.7-182.1V607.2l329.7,182.1l55-30.4L109.9,516.2v303.7l384.7,212.4c37.9-21,356.5-197,384.5-212.5V698.3
	L329.7,394.7L494.5,303.5z M109.9,333.9v121.5l549.4,303.7l-164.8,91.1L219.7,698.1v61l274.7,151.8
	c40.9-22.6,238.3-131.8,274.7-151.8c-33.8-18.7-388.6-214.8-604.3-334v-60.8c29.3-16.2,329.7-182.1,329.7-182.1
	C576.6,227.6,742,319,824.2,364.3v182.1L494.5,364.3l-55,30.4l439.5,242.9V333.9L494.5,121.4C456.5,142.5,138,318.5,109.9,333.9z
	 M494.5,0L0,273.3v607.2l494.5,273.3L989,880.6V273.3L494.5,0z M933.9,850.1L494.5,1093L55,850.1V303.7L494.5,60.8l439.5,242.9
	L933.9,850.1z"/>
<path class="st1" d="M7660.5,607.2c17.3,1.8,34,5.8,50.2,12.1c16.7,6.4,31.4,15,44,25.9c13.2,11,23.9,24.1,31.9,39.8
	c8.1,15,12.1,32.3,12.1,51.8c0,24.7-5.2,47.2-15.5,67.3c-10.4,19.5-24.5,36.3-42.4,50.2c-17.3,13.3-37.4,23.3-60.5,30.3
	c-22.5,7.5-46.4,11.2-71.7,11.2c-24.7,0-48.6-3.8-71.7-11.2c-23.1-6.9-43.4-17-61.3-30.3c-17.3-13.8-31.1-30.5-41.4-50.2
	c-10.4-20.1-15.5-42.6-15.5-67.3h129.6c0,19.5,6.4,32.9,19,39.8c13.2,6.9,27.1,10.4,41.4,10.4s27.9-3.8,40.6-11.2
	c13.2-7.5,19.9-18.7,19.9-33.7c0-11-6.4-20.7-19-29.4c-12.7-8.6-28.8-14.4-48.4-17.3c-22.5-2.8-44.6-8.4-66.5-16.4
	c-21.3-8-40.3-18.1-57-30.3c-16.1-12.1-29.4-25.9-39.8-41.4c-9.8-16.1-14.7-33.4-14.7-51.8c0-23.7,4.9-45,14.7-63.9
	c9.8-19,23.1-35.1,39.8-48.4c17.3-13.3,37.1-23.3,59.6-30.3c22.5-7.5,46-11.2,70.9-11.2c25.3,0,49,3.8,70.9,11.2
	c22.5,6.9,42,17.3,58.8,31.1c17.3,13.3,30.8,29.7,40.6,49.2c9.8,19.5,14.7,42,14.7,67.3h-129.8c0-9.8-1.8-17.9-5.2-24.1
	c-2.8-6.9-6.9-12.1-12.1-15.5c-5.2-4-11.2-6.6-18.1-7.8c-6.4-1.8-13-2.6-19.9-2.6c-14.4,0-27.3,3.2-38.9,9.5
	c-11,5.8-16.4,16.4-16.4,32c0,6.9,3.2,13.5,9.5,19.9c6.4,5.8,14.7,11.2,25.1,16.4c10.4,4.6,21.9,8.6,34.6,12.1
	C7635.1,603.1,7647.8,605.4,7660.5,607.2z"/>
<path class="st1" d="M7129.1,519c-17.9,0-34.9,3.4-51,10.4c-15.5,6.9-29.1,16.1-40.6,27.7c-11.5,11.5-20.7,25.3-27.7,41.4
	c-6.9,15.5-10.4,32.3-10.4,50.2c0,17.9,3.4,34.9,10.4,51c6.9,15.5,16.1,29.1,27.7,40.6s25.1,20.7,40.6,27.7
	c16.1,6.9,33.1,10.4,51,10.4c24.1,0,45.8-6,64.8-18.1c19.5-12.1,34.9-27.9,45.8-47.6h139.2c-7.5,26.5-19,51-34.6,73.5
	c-15.5,21.9-34.3,41.2-56.2,57.9c-21.9,16.1-46.4,28.8-73.5,38s-55.6,13.8-85.5,13.8c-35.7,0-69.5-6.4-101.1-19
	c-31.7-13.3-59.3-31.1-83-53.6c-23.1-22.5-41.4-48.6-55.3-78.7c-13.2-29.9-19.9-61.9-19.9-96s6.6-65.9,19.9-96
	c13.8-29.9,32.3-56.2,55.3-78.7c23.7-22.5,51.3-40,83-52.7c31.7-13.3,65.3-19.9,101.1-19.9c30.5,0,59.3,4.9,86.4,14.7
	c27.1,9.2,51.6,22.1,73.5,38.9c22.5,16.1,41.4,35.7,57,58.8c16.1,22.5,27.7,47.2,34.6,74.3H7244c-11.5-20.7-27.3-37.4-47.6-50.2
	C7176.9,525.4,7154.4,519,7129.1,519z"/>
<path class="st1" d="M6835.5,648.6c0,34-6.9,65.9-20.7,96c-13.2,29.9-31.7,56.2-55.3,78.7c-23.1,22.5-50.2,40.3-81.2,53.6
	c-31.1,12.7-64.5,19-100.2,19c-35.7,0-69.1-6.4-100.2-19c-31.1-13.3-58.5-31.1-82.1-53.6c-23.1-22.5-41.4-48.6-55.3-78.7
	c-13.2-29.9-19.9-61.9-19.9-96s6.6-65.9,19.9-96c13.8-29.9,32.3-56.2,55.3-78.7c23.7-22.5,51-40,82.1-52.7
	c31.1-13.3,64.5-19.9,100.2-19.9s69.1,6.6,100.2,19.9c31.1,12.7,58.2,30.3,81.2,52.7c23.7,22.5,42,48.6,55.3,78.7
	C6828.5,582.7,6835.5,614.6,6835.5,648.6z M6705.8,648.6c0-17.9-3.4-34.6-10.4-50.2c-6.4-16.1-15.3-29.9-26.8-41.4
	c-11.5-11.5-25.1-20.7-40.6-27.7c-15.5-6.9-32.3-10.4-50.2-10.4c-17.9,0-34.6,3.4-50.2,10.4s-29.1,16.1-40.6,27.7
	s-20.7,25.3-27.7,41.4c-6.4,15.5-9.5,32.3-9.5,50.2s3.2,34.9,9.5,51c6.9,15.5,16.1,29.1,27.7,40.6s25.1,20.7,40.6,27.7
	s32.3,10.4,50.2,10.4c17.9,0,34.6-3.4,50.2-10.4c15.5-6.9,29.1-16.1,40.6-27.7s20.5-25.1,26.8-40.6
	C6702.4,683.5,6705.8,666.5,6705.8,648.6z"/>
<path class="st1" d="M6294.7,573.8c0,45.7-7.9,87.7-23.7,126.3c-15.2,38.6-37.1,71.9-65.8,100.1c-28.6,28-63.7,50-105.3,65.8
	c-41,15.8-87.5,23.7-139.5,23.7h-254.6V257.9h254.4c49.7,0,95,7.9,136,23.7c41,15.8,76.1,37.7,105.3,65.8
	c29.8,28,52.6,61.5,68.4,100.1C6286.4,486,6294.7,528.1,6294.7,573.8z M5965.6,763.3c26.4,0,50.9-4.9,73.7-15
	c22.8-9.9,42.7-23.4,59.7-40.4c17.5-17.5,31.3-37.7,41.2-60.5s15-47.3,15-73.7c0-26.4-4.9-50.9-15-73.7
	c-9.9-22.8-23.7-42.7-41.2-59.7c-17-17.5-36.9-31.3-59.7-41.2c-22.8-9.9-47.3-15-73.7-15h-119.4v379.1L5965.6,763.3L5965.6,763.3z"
	/>
</svg>

<?xml version="1.0" encoding="UTF-8" standalone="no"?>
<!DOCTYPE svg PUBLIC "-//W3C//DTD SVG 1.1//EN" "http://www.w3.org/Graphics/SVG/1.1/DTD/svg11.dtd">
<svg width="100%" height="100%" viewBox="0 0 2100 1154" version="1.1" xmlns="http://www.w3.org/2000/svg" xmlns:xlink="http://www.w3.org/1999/xlink" xml:space="preserve" xmlns:serif="http://www.serif.com/" style="fill-rule:evenodd;clip-rule:evenodd;stroke-linejoin:round;stroke-miterlimit:2;">
    <g transform="matrix(1,0,0,1,-5702.25,0)">
        <path d="M7660.5,607.2C7677.8,609 7694.5,613 7710.7,619.3C7727.4,625.7 7742.1,634.3 7754.7,645.2C7767.9,656.2 7778.6,669.3 7786.6,685C7794.7,700 7798.7,717.3 7798.7,736.8C7798.7,761.5 7793.5,784 7783.2,804.1C7772.8,823.6 7758.7,840.4 7740.8,854.3C7723.5,867.6 7703.4,877.6 7680.3,884.6C7657.8,892.1 7633.9,895.8 7608.6,895.8C7583.9,895.8 7560,892 7536.9,884.6C7513.8,877.7 7493.5,867.6 7475.6,854.3C7458.3,840.5 7444.5,823.8 7434.2,804.1C7423.8,784 7418.7,761.5 7418.7,736.8L7548.3,736.8C7548.3,756.3 7554.7,769.7 7567.3,776.6C7580.5,783.5 7594.4,787 7608.7,787C7623,787 7636.6,783.2 7649.3,775.8C7662.5,768.3 7669.2,757.1 7669.2,742.1C7669.2,731.1 7662.8,721.4 7650.2,712.7C7637.5,704.1 7621.4,698.3 7601.8,695.4C7579.3,692.6 7557.2,687 7535.3,679C7514,671 7495,660.9 7478.3,648.7C7462.2,636.6 7448.9,622.8 7438.5,607.3C7428.7,591.2 7423.8,573.9 7423.8,555.5C7423.8,531.8 7428.7,510.5 7438.5,491.6C7448.3,472.6 7461.6,456.5 7478.3,443.2C7495.6,429.9 7515.4,419.9 7537.9,412.9C7560.4,405.4 7583.9,401.7 7608.8,401.7C7634.1,401.7 7657.8,405.5 7679.7,412.9C7702.2,419.8 7721.7,430.2 7738.5,444C7755.8,457.3 7769.3,473.7 7779.1,493.2C7788.9,512.7 7793.8,535.2 7793.8,560.5L7664,560.5C7664,550.7 7662.2,542.6 7658.8,536.4C7656,529.5 7651.9,524.3 7646.7,520.9C7641.5,516.9 7635.5,514.3 7628.6,513.1C7622.2,511.3 7615.6,510.5 7608.7,510.5C7594.3,510.5 7581.4,513.7 7569.8,520C7558.8,525.8 7553.4,536.4 7553.4,552C7553.4,558.9 7556.6,565.5 7562.9,571.9C7569.3,577.7 7577.6,583.1 7588,588.3C7598.4,592.9 7609.9,596.9 7622.6,600.4C7635.1,603.1 7647.8,605.4 7660.5,607.2Z" style="fill:white;fill-rule:nonzero;"/>
    </g>
    <g transform="matrix(1,0,0,1,-5702.25,0)">
        <path d="M7129.1,519C7111.2,519 7094.2,522.4 7078.1,529.4C7062.6,536.3 7049,545.5 7037.5,557.1C7026,568.6 7016.8,582.4 7009.8,598.5C7002.9,614 6999.4,630.8 6999.4,648.7C6999.4,666.6 7002.8,683.6 7009.8,699.7C7016.7,715.2 7025.9,728.8 7037.5,740.3C7049.1,751.8 7062.6,761 7078.1,768C7094.2,774.9 7111.2,778.4 7129.1,778.4C7153.2,778.4 7174.9,772.4 7193.9,760.3C7213.4,748.2 7228.8,732.4 7239.7,712.7L7378.9,712.7C7371.4,739.2 7359.9,763.7 7344.3,786.2C7328.8,808.1 7310,827.4 7288.1,844.1C7266.2,860.2 7241.7,872.9 7214.6,882.1C7187.5,891.3 7159,895.9 7129.1,895.9C7093.4,895.9 7059.6,889.5 7028,876.9C6996.3,863.6 6968.7,845.8 6945,823.3C6921.9,800.8 6903.6,774.7 6889.7,744.6C6876.5,714.7 6869.8,682.7 6869.8,648.6C6869.8,614.5 6876.4,582.7 6889.7,552.6C6903.5,522.7 6922,496.4 6945,473.9C6968.7,451.4 6996.3,433.9 7028,421.2C7059.7,407.9 7093.3,401.3 7129.1,401.3C7159.6,401.3 7188.4,406.2 7215.5,416C7242.6,425.2 7267.1,438.1 7289,454.9C7311.5,471 7330.4,490.6 7346,513.7C7362.1,536.2 7373.7,560.9 7380.6,588L7244,588C7232.5,567.3 7216.7,550.6 7196.4,537.8C7176.9,525.4 7154.4,519 7129.1,519Z" style="fill:white;fill-rule:nonzero;"/>
    </g>
    <g transform="matrix(1,0,0,1,-5702.25,0)">
        <path d="M6835.5,648.6C6835.5,682.6 6828.6,714.5 6814.8,744.6C6801.6,774.5 6783.1,800.8 6759.5,823.3C6736.4,845.8 6709.3,863.6 6678.3,876.9C6647.2,889.6 6613.8,895.9 6578.1,895.9C6542.4,895.9 6509,889.5 6477.9,876.9C6446.8,863.6 6419.4,845.8 6395.8,823.3C6372.7,800.8 6354.4,774.7 6340.5,744.6C6327.3,714.7 6320.6,682.7 6320.6,648.6C6320.6,614.5 6327.2,582.7 6340.5,552.6C6354.3,522.7 6372.8,496.4 6395.8,473.9C6419.5,451.4 6446.8,433.9 6477.9,421.2C6509,407.9 6542.4,401.3 6578.1,401.3C6613.8,401.3 6647.2,407.9 6678.3,421.2C6709.4,433.9 6736.5,451.5 6759.5,473.9C6783.2,496.4 6801.5,522.5 6814.8,552.6C6828.5,582.7 6835.5,614.6 6835.5,648.6ZM6705.8,648.6C6705.8,630.7 6702.4,614 6695.4,598.4C6689,582.3 6680.1,568.5 6668.6,557C6657.1,545.5 6643.5,536.3 6628,529.3C6612.5,522.4 6595.7,518.9 6577.8,518.9C6559.9,518.9 6543.2,522.3 6527.6,529.3C6512,536.3 6498.5,545.4 6487,557C6475.5,568.6 6466.3,582.3 6459.3,598.4C6452.9,613.9 6449.8,630.7 6449.8,648.6C6449.8,666.5 6453,683.5 6459.3,699.6C6466.2,715.1 6475.4,728.7 6487,740.2C6498.6,751.7 6512.1,760.9 6527.6,767.9C6543.1,774.9 6559.9,778.3 6577.8,778.3C6595.7,778.3 6612.4,774.9 6628,767.9C6643.5,761 6657.1,751.8 6668.6,740.2C6680.1,728.6 6689.1,715.1 6695.4,699.6C6702.4,683.5 6705.8,666.5 6705.8,648.6Z" style="fill:white;fill-rule:nonzero;"/>
    </g>
    <g transform="matrix(1,0,0,1,-5702.25,0)">
        <path d="M6294.7,573.8C6294.7,619.5 6286.8,661.5 6271,700.1C6255.8,738.7 6233.9,772 6205.2,800.2C6176.6,828.2 6141.5,850.2 6099.9,866C6058.9,881.8 6012.4,889.7 5960.4,889.7L5705.8,889.7L5705.8,257.9L5960.2,257.9C6009.9,257.9 6055.2,265.8 6096.2,281.6C6137.2,297.4 6172.3,319.3 6201.5,347.4C6231.3,375.4 6254.1,408.9 6269.9,447.5C6286.4,486 6294.7,528.1 6294.7,573.8ZM5965.6,763.3C5992,763.3 6016.5,758.4 6039.3,748.3C6062.1,738.4 6082,724.9 6099,707.9C6116.5,690.4 6130.3,670.2 6140.2,647.4C6150.1,624.6 6155.2,600.1 6155.2,573.7C6155.2,547.3 6150.3,522.8 6140.2,500C6130.3,477.2 6116.5,457.3 6099,440.3C6082,422.8 6062.1,409 6039.3,399.1C6016.5,389.2 5992,384.1 5965.6,384.1L5846.2,384.1L5846.2,763.2L5965.6,763.3Z" style="fill:white;fill-rule:nonzero;"/>
    </g>
</svg>
